X: 27317
T: Mist Covered Mountain, The
R: jig
M: 6/8
K: Adorian
a|age a2b|age edB|AGE G2A|BAB deg|
G|EAA ABd|edB AGE|~G3 GAB|dBA GED|
EAA ABd|edB ABd|efg dBG|BAG A2:|
a|age a2b|age edB|AGE G2A|BAB deg|
age a2b|age edB|AGE G2A|BAG A2a|
age a2b|age edB|AGE G2A|BAB GED|
EDE G2A|BAG ABd|efg dBG|BAG A2||

